packages/kaspersky-hexa-ui-icons/src/iconsSVGs/16/ResetBoth.svg

<svg width="16" height="16" viewBox="0 0 16 16" fill="none" xmlns="http://www.w3.org/2000/svg">
<path d="M4.45964 3.12622C4.71348 2.87238 4.71348 2.46082 4.45964 2.20698C4.20579 1.95314 3.79424 1.95314 3.5404 2.20698L0.87373 4.87365C0.619889 5.12749 0.619889 5.53905 0.87373 5.79289L3.5404 8.45955C3.79424 8.7134 4.20579 8.7134 4.45964 8.45955C4.71348 8.20571 4.71348 7.79416 4.45964 7.54032L2.90259 5.98327H6.00002C6.74516 5.98327 7.3493 6.58697 7.35002 7.33195L7.35002 13.9999C7.35002 14.3589 7.64103 14.6499 8.00002 14.6499C8.359 14.6499 8.65002 14.3589 8.65002 13.9999L8.65002 7.33195C8.65073 6.58697 9.25487 5.98327 10 5.98327H13.0974L11.5404 7.54032C11.2866 7.79416 11.2866 8.20571 11.5404 8.45955C11.7942 8.7134 12.2058 8.7134 12.4596 8.45955L15.1263 5.79289C15.3801 5.53905 15.3801 5.12749 15.1263 4.87365L12.4596 2.20698C12.2058 1.95314 11.7942 1.95314 11.5404 2.20698C11.2866 2.46082 11.2866 2.87238 11.5404 3.12622L13.0974 4.68327H10C9.20171 4.68327 8.48586 5.03626 8.00002 5.59467C7.51418 5.03626 6.79832 4.68327 6.00002 4.68327H2.90259L4.45964 3.12622Z" fill="black"/>
</svg>

<svg xmlns="http://www.w3.org/2000/svg" width="16" height="16" fill="none" viewBox="0 0 16 16"><path fill="#000" d="M4.4596 3.1263a.65.65 0 0 0-.9192-.9193L.8737 4.8737a.65.65 0 0 0 0 .9192l2.6667 2.6667a.65.65 0 0 0 .9192-.9192l-1.557-1.557H6c.7452 0 1.3493.6036 1.35 1.3486V14a.65.65 0 1 0 1.3 0V7.332c.0007-.745.6049-1.3487 1.35-1.3487h3.0974l-1.557 1.557a.65.65 0 0 0 .9192.9193l2.6667-2.6666a.65.65 0 0 0 0-.9193L12.4596 2.207a.65.65 0 1 0-.9192.9193l1.557 1.557H10c-.7983 0-1.5141.353-2 .9114-.4858-.5584-1.2017-.9114-2-.9114H2.9026z"/></svg>
